!!!COM: Bach, Johann Sebastian
!!!CDT: 1685/3//-1750/7/28/
!!!OTL@@DE: Der Tag, der ist so freudenreich
!!!OTL@EN: This day is so joyful
!!!AGN: 4-Part Chorale
!!!SCT: BH 158
!!!SCT: BWV 294
**harm	**root	**kern	**kern	**kern	**kern
!	!	!bass	!tenor	!alto	!soprno
*	*Iorgan	*Iorgan	*Iorgan	*Iorgan	*Iorgan
*k[f#c#g#d#a#e#b#]	*k[f#c#g#d#a#e#b#]	*k[f#c#g#d#a#e#b#]	*k[f#c#g#d#a#e#b#]	*k[f#c#g#d#a#e#b#]	*k[f#c#g#d#a#e#b#]
*C#:	*C#:	*C#:	*C#:	*C#:	*C#:
*M4/4	*M4/4	*M4/4	*M4/4	*M4/4	*M4/4
*met(c)	*met(c)	*met(c)	*met(c)	*met(c)	*met(c)
*MM60	*MM60	*MM60	*MM60	*MM60	*MM60
*>[A,A,B]	*>[A,A,B]	*>[A,A,B]	*>[A,A,B]	*>[A,A,B]	*>[A,A,B]
*>A	*>A	*>A	*>A	*>A	*>A
I	4GG	8c#	4e#	4g#	4cc#
.	.	8B#	.	.	.
=1	=1	=1	=1	=1	=1
vi	4EE	8A#	4e#	4a#	4cc#
.	.	8G#	.	.	.
IV	4CC	8F#	4f#	4.a#	4cc#
.	.	8E#	.	.	.
ii	4AA	4D#	4f#	.	4dd#
.	.	.	.	8b#	.
V7/IV	4GG	4C#	8g#	4cc#	4ee#
.	.	.	8b	.	.
=2	=2	=2	=2	=2	=2
IV	4CC	4F#	4a#	4.cc#	8ff#
.	.	.	.	.	8ee#
V	4DD	4G#	8d#	.	4dd#
.	.	.	16g#	8b#	.
.	.	.	16f#	.	.
I;	2GG;	2C#;	2e#;	2g#;	2cc#;
=3	=3	=3	=3	=3	=3
V	4DD	4G#	4g#	4b#	4dd#
ii	8AA	8D#	8f#	8a#	4dd#
vii7/IV	8BB	8E#	[8e#	8g#	.
ii	4AA	4F#	8e#]	[4a#	4a#
.	.	.	[8d#	.	.
V	4DD	4G#	8d#]	8a#]	4b#
.	.	.	16e#	16g#	.
.	.	.	16d#	16f#	.
=4	=4	=4	=4	=4	=4
vi	4EE	4A#	4.c#	8e#	4cc#
.	.	.	.	8c#	.
V	4DD	4G#	.	4g#	4dd#
.	.	.	8B#	.	.
I;	4GG;	4C#;	4e#;	4g#;	4cc#;
=:|!	=:|!	=:|!	=:|!	=:|!	=:|!
*>B	*>B	*>B	*>B	*>B	*>B
I	4GG	4c#	4e#	4g#	4cc#
=5	=5	=5	=5	=5	=5
V7b	4DD	4B#	8d#	4g#	4gg#
.	.	.	8f#	.	.
I	8GG	8c#	8e#	8cc#	4gg#
Vb	8DD	8B#	8d#	8dd#	.
vi	4EE	4A#	4c#	8ee#	4aa#
.	.	.	.	8ff#	.
Vb	4DD	4B#	4g#	8ee#	8gg#
.	.	.	.	8dd#	8ff#
!!linebreak: 3
=6	=6	=6	=6	=6	=6
I	4GG	8c#	4g#	4cc#	4ee#
.	.	8B#	.	.	.
viib/V	4CC#	4A#	4a#	4cc#	4ff##
V;	4DD;	4G#;	4b#;	4dd#;	4gg#;
Vb	4DD	4B#	8g#	4dd#	4gg#
.	.	.	8f#	.	.
=7	=7	=7	=7	=7	=7
I	4GG	8c#	8e#	4cc#	4gg#
.	.	8d#	8f#	.	.
Ib	4GG	8e#	8g#	4cc#	4gg#
.	.	8c#	8e#	.	.
IV	4CC	4f#	8f#	4cc#	4aa#
.	.	.	8e#	.	.
Vb	4DD	4B#	8d#	[4dd#	8gg#
.	.	.	8g#	.	8ff#
=8	=8	=8	=8	=8	=8
I	4GG	4c#	4g#	8dd#]	4ee#
.	.	.	.	4cc#	.
V	4DD	4G#	8.g#	.	4dd#
.	.	.	.	8b#	.
.	.	.	16f#	.	.
I;	2GG;	2C#;	2e#;	2g#;	2cc#;
=9	=9	=9	=9	=9	=9
IV	4CC	8F#	4c#	4f#	4a#
.	.	8E#	.	.	.
viib	4FF#	4D#	4d#	4f#	4b#
Ib	4GG	4E#	8G#	8g#	4cc#
.	.	.	4c#	4e#	.
vii7/V	8CC#	4F##	.	.	4a#
Vb/V	8AA	.	16B#	8d#	.
.	.	.	16A#	.	.
=10	=10	=10	=10	=10	=10
V	4DD	4G#	4B#	8d#	4g#
.	.	.	.	8e#	.
V7/V	4AA	4D#	8A#	4d#	4f##
.	.	.	16B#	.	.
.	.	.	16c#	.	.
V;	2DD;	2GG#;	2B#;	2d#;	2g#;
!!linebreak: 3
=11	=11	=11	=11	=11	=11
vi	4EE	8A#	4e#	4a#	4cc#
.	.	8G#	.	.	.
IV	4CC	8F#	4f#	4a#	4cc#
.	.	8E#	.	.	.
ii	8AA	4D#	4f#	8a#	4dd#
viib	8FF#	.	.	8b#	.
V7/IV	4GG	4C#	8g#	4cc#	4ee#
.	.	.	8b	.	.
=12	=12	=12	=12	=12	=12
IV	4CC	4F#	4a#	4.cc#	8ff#
.	.	.	.	.	8ee#
V	4DD	4G#	8d#	.	4dd#
.	.	.	16g#	8b#	.
.	.	.	16f#	.	.
I;	2GG;	2C#;	2e#;	2g#;	2cc#;
=13	=13	=13	=13	=13	=13
V	4DD	8GG#	8B#	4g#	4dd#
.	.	8AA#	8c#	.	.
Vb	4DD	8BB#	4d#	4g#	4dd#
.	.	8C#	.	.	.
V/V	4AA	8D#	4d#	4f##	4a#
.	.	8C#	.	.	.
Vb	4DD	4BB#	4d#	4g#	4b#
=14	=14	=14	=14	=14	=14
vi7b	4EE	4AA#	4e#	4g#	8cc#
.	.	.	.	.	8b#
V/V	4AA	4D#	8A#	4f##	4a#
.	.	.	16d#	.	.
.	.	.	16c#	.	.
V;	4DD;	4G#;	4B#;	4d#;	4g#;
V7b/IV	4GG	4E#	4c#	4g#	4b
=15	=15	=15	=15	=15	=15
IV	4CC	4.F#	4c#	4f#	4a#
IV	4CC	.	4A#	4c#	4f#
.	.	8E#	.	.	.
ii	4AA	4D#	4d#	4f#	4a#
V	4DD	8G#	4d#	4g#	4b#y
.	.	8F#	.	.	.
=16	=16	=16	=16	=16	=16
Ib	4GG	8E#	4c#	4.g#	4cc#
.	.	8C#	.	.	.
V	4DD	4G#	4B#	.	4dd#
.	.	.	.	8f#	.
I;	4GG;	4C#;	4c#;	4e#;	4cc#;
==	==	==	==	==	==
*-	*-	*-	*-	*-	*-
!!!YOR: Ludwig Erk, Peters Editions of 1850, 1865; revised in light of
!!!YOR: Friedrich Smend, Peters Edition of 1932 & Albert Riemenschneider, 1941.
!!!RDT: 1987 September
!!!YER: 1995 March 1
!!chor2scor: -l 3 -s 0.6 -o %b.pmx
!!!ONB1: Text by Georg Niege; 16th Century secular melody, first appears 
!!!ONB2: in sacred use in Neu Catechismus-Gesangbüchlein, Hamburg, 1598. 
!!!YEC: Copyright 1994, David Huron
!!!YEN: United States of America
!!!SMA: 371 Bach Chorales, edited by Ludwig Erk, C.F. Peters
!!!PDT: 1850, 1865
